icons/hicolor/16x16/actions/menustyle-touch-symbolic.svg

<?xml version="1.0" encoding="UTF-8" standalone="no"?>
<svg
   xmlns:dc="http://purl.org/dc/elements/1.1/"
   xmlns:cc="http://creativecommons.org/ns#"
   xmlns:rdf="http://www.w3.org/1999/02/22-rdf-syntax-ns#"
   xmlns:svg="http://www.w3.org/2000/svg"
   xmlns="http://www.w3.org/2000/svg"
   xmlns:xlink="http://www.w3.org/1999/xlink"
   xmlns:sodipodi="http://sodipodi.sourceforge.net/DTD/sodipodi-0.dtd"
   xmlns:inkscape="http://www.inkscape.org/namespaces/inkscape"
   inkscape:version="1.0.2-2 (e86c870879, 2021-01-15)"
   sodipodi:docname="touch-category-symbolic.svg"
   id="svg2"
   version="1.1"
   width="350"
   height="350">
  <sodipodi:namedview
     inkscape:document-rotation="0"
     inkscape:current-layer="svg2"
     inkscape:window-maximized="1"
     inkscape:window-y="32"
     inkscape:window-x="2552"
     inkscape:cy="314.3787"
     inkscape:cx="301.72482"
     inkscape:zoom="2.6074563"
     showgrid="false"
     id="namedview54"
     inkscape:window-height="1377"
     inkscape:window-width="2560"
     inkscape:pageshadow="2"
     inkscape:pageopacity="0"
     guidetolerance="10"
     gridtolerance="10"
     objecttolerance="10"
     borderopacity="1"
     bordercolor="#666666"
     pagecolor="#ffffff"
     fit-margin-top="0"
     fit-margin-left="0"
     fit-margin-right="0"
     fit-margin-bottom="0" />
  <metadata
     id="metadata8">
    <rdf:RDF>
      <cc:Work
         rdf:about="">
        <dc:format>image/svg+xml</dc:format>
        <dc:type
           rdf:resource="http://purl.org/dc/dcmitype/StillImage" />
        <dc:title />
      </cc:Work>
    </rdf:RDF>
  </metadata>
  <defs
     id="defs6">
    <linearGradient
       id="linearGradient3764"
       x1="1"
       x2="47"
       gradientUnits="userSpaceOnUse"
       gradientTransform="rotate(-90,23.999998,24)">
      <stop
         stop-color="#e4e4e4"
         stop-opacity="1"
         id="stop7" />
      <stop
         offset="1"
         stop-color="#eee"
         stop-opacity="1"
         id="stop9" />
    </linearGradient>
    <clipPath
       id="clipPath-365326813">
      <g
         transform="translate(0,-1004.3622)"
         id="g12">
        <path
           d="m -24,13 c 0,1.105 -0.672,2 -1.5,2 -0.828,0 -1.5,-0.895 -1.5,-2 0,-1.105 0.672,-2 1.5,-2 0.828,0 1.5,0.895 1.5,2 z"
           transform="matrix(15.333333,0,0,11.5,414.99999,878.8622)"
           id="path14"
           style="fill:#1890d0"
           inkscape:connector-curvature="0" />
      </g>
    </clipPath>
    <clipPath
       id="clipPath-370729992">
      <g
         transform="translate(0,-1004.3622)"
         id="g17">
        <path
           d="m -24,13 c 0,1.105 -0.672,2 -1.5,2 -0.828,0 -1.5,-0.895 -1.5,-2 0,-1.105 0.672,-2 1.5,-2 0.828,0 1.5,0.895 1.5,2 z"
           transform="matrix(15.333333,0,0,11.5,414.99999,878.8622)"
           id="path19"
           style="fill:#1890d0"
           inkscape:connector-curvature="0" />
      </g>
    </clipPath>
    <defs
       id="defs5">
      <rect
         height="1024"
         width="1024"
         id="SVGID_1_"
         x="0"
         y="0" />
    </defs>
    <clipPath
       id="SVGID_2_">
      <use
         id="use9"
         overflow="visible"
         xlink:href="#SVGID_1_"
         style="overflow:visible"
         x="0"
         y="0"
         width="100%"
         height="100%" />
    </clipPath>
    <defs
       id="defs38">
      <rect
         id="SVGID_8_"
         width="1024"
         height="1024"
         x="0"
         y="0" />
    </defs>
    <clipPath
       id="SVGID_9_">
      <use
         xlink:href="#SVGID_8_"
         overflow="visible"
         id="use42"
         style="overflow:visible"
         x="0"
         y="0"
         width="100%"
         height="100%" />
    </clipPath>
    <defs
       id="defs44">
      <filter
         id="Adobe_OpacityMaskFilter"
         filterUnits="userSpaceOnUse"
         x="305.03299"
         y="293.44199"
         width="413.93399"
         height="413.96701">
        <feFlood
           result="back"
           id="feFlood47" />
        <feBlend
           in="SourceGraphic"
           in2="back"
           mode="normal"
           id="feBlend49" />
      </filter>
    </defs>
    <mask
       maskUnits="userSpaceOnUse"
       x="305.033"
       y="293.442"
       width="413.934"
       height="413.967"
       id="SVGID_10_">
      <g
         id="g52"
         style="filter:url(#Adobe_OpacityMaskFilter)">
        <g
           enable-background="new    "
           id="g54">
          <g
             id="g56">
            <defs
               id="defs58">
              <path
                 id="SVGID_11_"
                 d="m 513.458,309.257 c 91.063,0 164.903,76.897 164.903,171.722 0,94.833 -73.84,171.727 -164.903,171.727 -91.047,0 -164.89,-76.894 -164.89,-171.727 0,-94.825 73.843,-171.722 164.89,-171.722"
                 inkscape:connector-curvature="0" />
            </defs>
            <clipPath
               id="SVGID_12_"
               clip-path="url(#SVGID_9_)">
              <use
                 xlink:href="#SVGID_11_"
                 overflow="visible"
                 id="use62"
                 style="overflow:visible"
                 x="0"
                 y="0"
                 width="100%"
                 height="100%" />
            </clipPath>
            <linearGradient
               id="SVGID_13_"
               gradientUnits="userSpaceOnUse"
               x1="0"
               y1="1024"
               x2="1"
               y2="1024"
               gradientTransform="matrix(-10.9559,383.4525,383.4525,10.9559,-392132.59,-11061.132)">
              <stop
                 offset="0"
                 style="stop-color:#1C1B18"
                 id="stop65" />
              <stop
                 offset="0.1871"
                 style="stop-color:#4B4846"
                 id="stop67" />
              <stop
                 offset="0.3677"
                 style="stop-color:#7F7B79"
                 id="stop69" />
              <stop
                 offset="0.5336"
                 style="stop-color:#B0ADAD"
                 id="stop71" />
              <stop
                 offset="0.6817"
                 style="stop-color:#D9D8D8"
                 id="stop73" />
              <stop
                 offset="0.8068"
                 style="stop-color:#F5F5F5"
                 id="stop75" />
              <stop
                 offset="0.8938"
                 style="stop-color:#FFFFFF"
                 id="stop77" />
              <stop
                 offset="1"
                 style="stop-color:#FFFFFF"
                 id="stop79" />
            </linearGradient>
            <polygon
               clip-path="url(#SVGID_12_)"
               points="678.092,662.121 338.763,652.426 348.837,299.842 688.166,309.537 "
               id="polygon81"
               style="fill:url(#SVGID_13_)" />
          </g>
        </g>
      </g>
    </mask>
    <filter
       style="color-interpolation-filters:sRGB"
       id="filter139">
      <feFlood
         flood-opacity="0.498039"
         flood-color="rgb(0,0,0)"
         result="flood"
         id="feFlood129" />
      <feComposite
         in="flood"
         in2="SourceGraphic"
         operator="in"
         result="composite1"
         id="feComposite131" />
      <feGaussianBlur
         in="composite1"
         stdDeviation="3"
         result="blur"
         id="feGaussianBlur133" />
      <feOffset
         dx="2"
         dy="2"
         result="offset"
         id="feOffset135" />
      <feComposite
         in="SourceGraphic"
         in2="offset"
         operator="over"
         result="composite2"
         id="feComposite137" />
    </filter>
    <linearGradient
       id="linearGradient3764-9"
       x1="1"
       x2="47"
       gradientUnits="userSpaceOnUse"
       gradientTransform="rotate(-90,23.999998,24)">
      <stop
         stop-color="#e4e4e4"
         stop-opacity="1"
         id="stop7-6" />
      <stop
         offset="1"
         stop-color="#eee"
         stop-opacity="1"
         id="stop9-3" />
    </linearGradient>
    <clipPath
       id="clipPath-365326813-8">
      <g
         transform="translate(0,-1004.3622)"
         id="g12-5">
        <path
           d="m -24,13 c 0,1.105 -0.672,2 -1.5,2 -0.828,0 -1.5,-0.895 -1.5,-2 0,-1.105 0.672,-2 1.5,-2 0.828,0 1.5,0.895 1.5,2 z"
           transform="matrix(15.333333,0,0,11.5,414.99999,878.8622)"
           id="path14-6"
           inkscape:connector-curvature="0"
           style="fill:#1890d0" />
      </g>
    </clipPath>
    <clipPath
       id="clipPath-370729992-1">
      <g
         transform="translate(0,-1004.3622)"
         id="g17-1">
        <path
           d="m -24,13 c 0,1.105 -0.672,2 -1.5,2 -0.828,0 -1.5,-0.895 -1.5,-2 0,-1.105 0.672,-2 1.5,-2 0.828,0 1.5,0.895 1.5,2 z"
           transform="matrix(15.333333,0,0,11.5,414.99999,878.8622)"
           id="path19-5"
           inkscape:connector-curvature="0"
           style="fill:#1890d0" />
      </g>
    </clipPath>
    <inkscape:perspective
       id="perspective3018"
       inkscape:persp3d-origin="256 : 30.879774 : 1"
       inkscape:vp_z="512 : 116.2131 : 1"
       inkscape:vp_y="0 : 1000 : 0"
       inkscape:vp_x="0 : 116.2131 : 1"
       sodipodi:type="inkscape:persp3d" />
    <defs
       id="defs5-9">
      <rect
         height="1024"
         width="1024"
         id="SVGID_1_-8"
         x="0"
         y="0" />
    </defs>
    <clipPath
       id="SVGID_2_-4">
      <use
         id="use9-8"
         overflow="visible"
         xlink:href="#SVGID_1_-8"
         style="overflow:visible"
         x="0"
         y="0"
         width="100%"
         height="100%" />
    </clipPath>
    <defs
       id="defs38-1">
      <rect
         id="SVGID_8_-0"
         width="1024"
         height="1024"
         x="0"
         y="0" />
    </defs>
    <clipPath
       id="SVGID_9_-3">
      <use
         xlink:href="#SVGID_8_-0"
         overflow="visible"
         id="use42-0"
         style="overflow:visible"
         x="0"
         y="0"
         width="100%"
         height="100%" />
    </clipPath>
    <defs
       id="defs44-4">
      <filter
         id="Adobe_OpacityMaskFilter-4"
         filterUnits="userSpaceOnUse"
         x="305.03299"
         y="293.44199"
         width="413.93399"
         height="413.96701">
        <feFlood
           result="back"
           id="feFlood47-4" />
        <feBlend
           in="SourceGraphic"
           in2="back"
           mode="normal"
           id="feBlend49-4" />
      </filter>
    </defs>
    <mask
       maskUnits="userSpaceOnUse"
       x="305.033"
       y="293.442"
       width="413.934"
       height="413.967"
       id="SVGID_10_-7">
      <g
         id="g52-6"
         style="filter:url(#Adobe_OpacityMaskFilter-4)">
        <g
           enable-background="new    "
           id="g54-3">
          <g
             id="g56-1">
            <defs
               id="defs58-7">
              <path
                 id="SVGID_11_-5"
                 d="m 513.458,309.257 c 91.063,0 164.903,76.897 164.903,171.722 0,94.833 -73.84,171.727 -164.903,171.727 -91.047,0 -164.89,-76.894 -164.89,-171.727 0,-94.825 73.843,-171.722 164.89,-171.722"
                 inkscape:connector-curvature="0" />
            </defs>
            <clipPath
               id="SVGID_12_-9"
               clip-path="url(#SVGID_9_-3)">
              <use
                 xlink:href="#SVGID_11_-5"
                 overflow="visible"
                 id="use62-6"
                 style="overflow:visible"
                 x="0"
                 y="0"
                 width="100%"
                 height="100%" />
            </clipPath>
            <linearGradient
               id="linearGradient153"
               gradientUnits="userSpaceOnUse"
               x1="0"
               y1="1024"
               x2="1"
               y2="1024"
               gradientTransform="matrix(-10.9559,383.4525,383.4525,10.9559,-392132.59,-11061.132)">
              <stop
                 offset="0"
                 style="stop-color:#1C1B18"
                 id="stop65-2" />
              <stop
                 offset="0.1871"
                 style="stop-color:#4B4846"
                 id="stop67-1" />
              <stop
                 offset="0.3677"
                 style="stop-color:#7F7B79"
                 id="stop69-7" />
              <stop
                 offset="0.5336"
                 style="stop-color:#B0ADAD"
                 id="stop71-8" />
              <stop
                 offset="0.6817"
                 style="stop-color:#D9D8D8"
                 id="stop73-5" />
              <stop
                 offset="0.8068"
                 style="stop-color:#F5F5F5"
                 id="stop75-7" />
              <stop
                 offset="0.8938"
                 style="stop-color:#FFFFFF"
                 id="stop77-4" />
              <stop
                 offset="1"
                 style="stop-color:#FFFFFF"
                 id="stop79-1" />
            </linearGradient>
            <polygon
               clip-path="url(#SVGID_12_-9)"
               points="678.092,662.121 338.763,652.426 348.837,299.842 688.166,309.537 "
               id="polygon81-8"
               style="fill:url(#SVGID_13_)" />
          </g>
        </g>
      </g>
    </mask>
    <filter
       style="color-interpolation-filters:sRGB"
       inkscape:label="Drop Shadow"
       id="filter139-5">
      <feFlood
         flood-opacity="0.498039"
         flood-color="rgb(0,0,0)"
         result="flood"
         id="feFlood129-9" />
      <feComposite
         in="flood"
         in2="SourceGraphic"
         operator="in"
         result="composite1"
         id="feComposite131-7" />
      <feGaussianBlur
         in="composite1"
         stdDeviation="3"
         result="blur"
         id="feGaussianBlur133-5" />
      <feOffset
         dx="2"
         dy="2"
         result="offset"
         id="feOffset135-3" />
      <feComposite
         in="SourceGraphic"
         in2="offset"
         operator="over"
         result="composite2"
         id="feComposite137-8" />
    </filter>
    <rect
       height="1024"
       width="1024"
       id="rect166"
       x="0"
       y="0" />
    <rect
       id="rect168"
       width="1024"
       height="1024"
       x="0"
       y="0" />
    <filter
       id="filter174"
       filterUnits="userSpaceOnUse"
       x="305.03299"
       y="293.44199"
       width="413.93399"
       height="413.96701">
      <feFlood
         result="back"
         id="feFlood170" />
      <feBlend
         in="SourceGraphic"
         in2="back"
         mode="normal"
         id="feBlend172" />
    </filter>
    <path
       id="path176"
       d="m 513.458,309.257 c 91.063,0 164.903,76.897 164.903,171.722 0,94.833 -73.84,171.727 -164.903,171.727 -91.047,0 -164.89,-76.894 -164.89,-171.727 0,-94.825 73.843,-171.722 164.89,-171.722"
       inkscape:connector-curvature="0" />
  </defs>
  <g
     style="fill:#cccccc"
     id="g16"
     transform="matrix(0.4661017,0,0,0.4661017,-370.67894,156.64955)" />
  <path
     id="path77"
     style="fill:#383a3c;fill-opacity:1;stroke:none;stroke-width:1.21617;stroke-opacity:1"
     d="M 75.230469 29.882812 C 60.208699 29.882812 48.023438 42.07197 48.023438 57.09375 L 48.023438 292.90625 C 48.023437 307.92803 60.208699 320.11719 75.230469 320.11719 L 274.76562 320.11719 C 289.78742 320.11719 301.97656 307.92803 301.97656 292.90625 L 301.97656 57.09375 C 301.97656 42.07197 289.78742 29.882812 274.76562 29.882812 L 75.230469 29.882812 z M 82.033203 57.09375 L 267.96289 57.09375 C 271.70417 57.09375 274.76562 60.155214 274.76562 63.896484 L 274.76562 240.75586 C 274.76562 244.49713 271.70417 247.55664 267.96289 247.55664 L 82.033203 247.55664 C 78.291933 247.55664 75.230469 244.49713 75.230469 240.75586 L 75.230469 63.896484 C 75.230469 60.155214 78.291933 57.09375 82.033203 57.09375 z M 175 268.0918 A 16.907753 16.907753 0 0 1 191.9082 285 A 16.907753 16.907753 0 0 1 175 301.9082 A 16.907753 16.907753 0 0 1 158.0918 285 A 16.907753 16.907753 0 0 1 175 268.0918 z " />
</svg>

<svg xmlns="http://www.w3.org/2000/svg" width="350" height="350"><path d="M75.23 29.883c-15.021 0-27.207 12.189-27.207 27.21v235.813c0 15.022 12.186 27.211 27.207 27.211h199.536c15.021 0 27.21-12.189 27.21-27.21V57.093c0-15.022-12.189-27.211-27.21-27.211zm6.803 27.21h185.93c3.741 0 6.803 3.062 6.803 6.803v176.86c0 3.741-3.062 6.8-6.803 6.8H82.033c-3.741 0-6.803-3.059-6.803-6.8V63.896c0-3.74 3.062-6.802 6.803-6.802M175 268.093A16.91 16.91 0 0 1 191.908 285 16.91 16.91 0 0 1 175 301.908 16.91 16.91 0 0 1 158.092 285 16.91 16.91 0 0 1 175 268.092" style="fill:#383a3c;fill-opacity:1;stroke:none;stroke-width:1.21617;stroke-opacity:1"/></svg>
